assets/Zany face/Flat/zany_face_flat.svg

<svg width="32" height="32" viewBox="0 0 32 32" fill="none" xmlns="http://www.w3.org/2000/svg">
<path d="M19.6216 29.521C28.638 27.1051 31.5214 19.8439 29.5203 12.376C27.5193 4.90805 21.3917 0.0613393 12.3753 2.47727C3.35889 4.89321 0.475547 12.1544 2.47657 19.6223C4.4776 27.0903 10.6052 31.937 19.6216 29.521Z" fill="#FFB02E"/>
<path d="M18.5883 25.6593C8.92901 28.2474 6.34082 18.5882 6.34082 18.5882L25.6593 13.4118C25.6593 13.4118 28.2475 23.0711 18.5883 25.6593Z" fill="#BB1D80"/>
<path d="M23.6326 15.5077L9.14376 19.39C8.34356 19.6044 7.52105 19.1295 7.30664 18.3293L24.6933 13.6706C24.9077 14.4708 24.4328 15.2933 23.6326 15.5077Z" fill="white"/>
<path d="M19.3796 28.553C23.4365 27.4659 23.6241 21.7734 23.4779 20.7256C23.1376 18.3903 19.3817 18.8415 16.9519 19.4926C14.5221 20.1436 10.9906 21.6543 11.8868 23.8314C12.2841 24.812 15.3227 29.64 19.3796 28.553Z" fill="#F70A8D"/>
<path d="M10.4285 16.4576C12.8291 15.8144 14.2537 13.3469 13.6105 10.9463C12.9672 8.54566 10.4997 7.12104 8.09913 7.76428C5.69853 8.40752 4.27391 10.875 4.91715 13.2756C5.56038 15.6762 8.0279 17.1008 10.4285 16.4576Z" fill="white"/>
<path d="M21.0537 13.6106C23.4543 12.9674 24.8789 10.4998 24.2357 8.09925C23.5924 5.69865 21.1249 4.27403 18.7243 4.91727C16.3237 5.56051 14.8991 8.02802 15.5423 10.4286C16.1856 12.8292 18.6531 14.2538 21.0537 13.6106Z" fill="white"/>
<path d="M21.9157 7.16792C22.2016 8.23485 21.5685 9.33152 20.5015 9.61741C19.4346 9.90329 18.3379 9.27012 18.052 8.20319C17.7662 7.13626 18.3993 6.03959 19.4663 5.7537C20.5332 5.46782 21.6299 6.10098 21.9157 7.16792Z" fill="#402A32"/>
<path d="M11.101 13.1716C11.3869 14.2385 10.7538 15.3352 9.68684 15.6211C8.6199 15.907 7.52323 15.2738 7.23735 14.2069C6.95146 13.1399 7.58463 12.0432 8.65156 11.7574C9.71849 11.4715 10.8152 12.1046 11.101 13.1716Z" fill="#402A32"/>
</svg>

<svg xmlns="http://www.w3.org/2000/svg" width="32" height="32" fill="none"><path fill="#FFB02E" d="M19.622 29.521c9.016-2.416 11.9-9.677 9.898-17.145-2-7.468-8.128-12.315-17.145-9.899C3.36 4.893.475 12.154 2.477 19.622c2 7.468 8.128 12.315 17.145 9.899Z"/><path fill="#BB1D80" d="M18.588 25.66C8.93 28.246 6.341 18.587 6.341 18.587l19.318-5.176s2.588 9.66-7.07 12.247Z"/><path fill="#fff" d="M23.633 15.508 9.143 19.39a1.5 1.5 0 0 1-1.836-1.06l17.386-4.66a1.5 1.5 0 0 1-1.06 1.838Z"/><path fill="#F70A8D" d="M19.38 28.553c4.056-1.087 4.244-6.78 4.098-7.827-.34-2.336-4.096-1.884-6.526-1.233-2.43.65-5.961 2.161-5.065 4.338.397.981 3.436 5.809 7.493 4.722Z"/><path fill="#fff" d="M10.428 16.458A4.5 4.5 0 1 0 8.1 7.764a4.5 4.5 0 0 0 2.33 8.694ZM21.054 13.61a4.5 4.5 0 1 0-2.33-8.693 4.5 4.5 0 0 0 2.33 8.694Z"/><path fill="#402A32" d="M21.916 7.168a2 2 0 1 1-3.864 1.035 2 2 0 0 1 3.864-1.035ZM11.101 13.172a2 2 0 1 1-3.864 1.035 2 2 0 0 1 3.864-1.035Z"/></svg>
